Automatic/src/svg/Microsoft - Xbox 360 S T.svg

<svg xmlns="http://www.w3.org/2000/svg" xml:space="preserve" width="305.853" height="320.004"><defs><clipPath id="a" clipPathUnits="userSpaceOnUse"><path d="M0 256h256V0H0Z"/></clipPath></defs><g clip-path="url(#a)" transform="matrix(1.33333 0 0 -1.33333 -17.738 329.228)"><path d="M0 0a4 4 0 0 0-2.613.978 4 4 0 0 0-.385.376q-.179.202-.33.427L-6.141 6h222l-2.812-4.219A4 4 0 0 0 209.719 0Zm15.841 87.851L6.347 10H-5.628l9.487 74ZM-3.921 222.003l12.102.212 7.23-130.149-.817-.271-11.177-3.726Zm113.778 1.996 105.433-1.989-8.82-61.83-1.938-.692L20.553 93.781l-1.208-.403-7.162 128.908ZM10.377 10l9.453 77.516.224 1.839 185.824 66.366L215.465 10Zm-4.47 216.176L-4.141 226l1.089 3.265A4 4 0 0 0 .742 232h210.235c.24 0 .475-.026.706-.068.057-.011.113-.028.17-.041q.266-.06.52-.153.073-.028.144-.059.272-.114.522-.266l.081-.049a4 4 0 0 0 1.651-2.099l1.088-3.265-106 2zM216.375-.437l2.812 4.218.287 6.219-9.591 145.78 9.048 63.429c.258 1.813.351 3.645.275 5.474l-.125 3.039a10.2 10.2 0 0 1-.516 2.808 5.47 5.47 0 0 1-5.469 5.47H109.939l-.077.003-.079-.003H.742a8 8 0 0 1-7.589-5.47l-1.089-3.265.012-5.332L-.398 84.581-9.661 10l-.231-2.999a8 8 0 0 1 1.808-5.71l1.428-1.728A7.98 7.98 0 0 1 0-4h209.719a8 8 0 0 1 6.656 3.563" style="fill:#fff;fill-opacity:1;fill-rule:nonzero;stroke:none" transform="translate(23.22 10.918)"/><path d="m0 0 .819 4.262-22.262-7.124-.704-4.225z" style="fill:#fff;fill-opacity:1;fill-rule:nonzero;stroke:none" transform="translate(112.325 60.597)"/><path d="m0 0 .82 4.263-22.494-7.199-.704-4.225z" style="fill:#fff;fill-opacity:1;fill-rule:nonzero;stroke:none" transform="translate(113.964 69.121)"/><path d="m0 0 .82 4.262-22.032-7.05-.705-4.226z" style="fill:#fff;fill-opacity:1;fill-rule:nonzero;stroke:none" transform="translate(110.686 52.072)"/><path d="m0 0-.82-4.263 28.632 9.162.757 4.243z" style="fill:#fff;fill-opacity:1;fill-rule:nonzero;stroke:none" transform="translate(123.964 100.321)"/><path d="m0 0-.82-4.262L28.184 5.02l.758 4.242Z" style="fill:#fff;fill-opacity:1;fill-rule:nonzero;stroke:none" transform="translate(119.046 74.747)"/><path d="m0 0-.819-4.262 29.128 9.321.757 4.243z" style="fill:#fff;fill-opacity:1;fill-rule:nonzero;stroke:none" transform="translate(117.407 66.223)"/><path d="m0 0-.82-4.263 28.756 9.202.757 4.243z" style="fill:#fff;fill-opacity:1;fill-rule:nonzero;stroke:none" transform="translate(122.325 91.797)"/><path d="m0 0-.82-4.263 28.881 9.242.756 4.242z" style="fill:#fff;fill-opacity:1;fill-rule:nonzero;stroke:none" transform="translate(120.686 83.272)"/><path d="m0 0 .819 4.263-22.955-7.346-.704-4.226Z" style="fill:#fff;fill-opacity:1;fill-rule:nonzero;stroke:none" transform="translate(117.243 86.17)"/><path d="m0 0 .82 4.263-22.725-7.273-.704-4.224Z" style="fill:#fff;fill-opacity:1;fill-rule:nonzero;stroke:none" transform="translate(115.603 77.645)"/><path d="m0 0-.819-4.263 29.5 9.441.758 4.242z" style="fill:#fff;fill-opacity:1;fill-rule:nonzero;stroke:none" transform="translate(112.489 40.65)"/><path d="m0 0 .757 4.243-29.563-9.461-.819-4.261z" style="fill:#fff;fill-opacity:1;fill-rule:nonzero;stroke:none" transform="translate(139.655 37.342)"/><path d="m0 0-.705-4.226 23.302 7.457.82 4.262z" style="fill:#fff;fill-opacity:1;fill-rule:nonzero;stroke:none" transform="translate(97.924 99.988)"/><path d="M0 0h5l.303 1.697Z" style="fill:#fff;fill-opacity:1;fill-rule:nonzero;stroke:none" transform="translate(132.08 22.918)"/><path d="m0 0 .82 4.263-21.34-6.829-.168-1.014h9.5z" style="fill:#fff;fill-opacity:1;fill-rule:nonzero;stroke:none" transform="translate(105.768 26.498)"/><path d="m0 0 .82 4.262-23.187-7.42-.704-4.225z" style="fill:#fff;fill-opacity:1;fill-rule:nonzero;stroke:none" transform="translate(118.882 94.695)"/><path d="m0 0-.82-4.263 29.253 9.362.757 4.242Z" style="fill:#fff;fill-opacity:1;fill-rule:nonzero;stroke:none" transform="translate(115.768 57.698)"/><path d="m0 0-.82-4.263 29.377 9.401.757 4.243z" style="fill:#fff;fill-opacity:1;fill-rule:nonzero;stroke:none" transform="translate(114.128 49.174)"/><path d="m0 0 .704 4.225-26.195-8.382-.599-4.193Z" style="fill:#fff;fill-opacity:1;fill-rule:nonzero;stroke:none" transform="translate(87.36 60.608)"/><path d="m0 0 .705 4.226-25.563-8.181-.6-4.191z" style="fill:#fff;fill-opacity:1;fill-rule:nonzero;stroke:none" transform="translate(83.135 35.256)"/><path d="m0 0 .704 4.225-25.774-8.247-.598-4.192Z" style="fill:#fff;fill-opacity:1;fill-rule:nonzero;stroke:none" transform="translate(84.544 43.707)"/><path d="m0 0-21.801-6.977-.704-4.224L-.819-4.262z" style="fill:#fff;fill-opacity:1;fill-rule:nonzero;stroke:none" transform="translate(109.866 47.81)"/><path d="m0 0 .705 4.226L-25.28-4.09l-.599-4.191Z" style="fill:#fff;fill-opacity:1;fill-rule:nonzero;stroke:none" transform="translate(85.952 52.157)"/><path d="m0 0 .704 4.225-25.352-8.113h12.5z" style="fill:#fff;fill-opacity:1;fill-rule:nonzero;stroke:none" transform="translate(81.727 26.806)"/><path d="m0 0 .705 4.226-26.407-8.451-.599-4.191z" style="fill:#fff;fill-opacity:1;fill-rule:nonzero;stroke:none" transform="translate(88.769 69.059)"/><path d="m0 0 28.259 9.042.758 4.243L.82 4.262Z" style="fill:#fff;fill-opacity:1;fill-rule:nonzero;stroke:none" transform="translate(128.063 121.633)"/><path d="m0 0-.819-4.263L27.687 4.86l.758 4.243Z" style="fill:#fff;fill-opacity:1;fill-rule:nonzero;stroke:none" transform="translate(125.603 108.846)"/><path d="m0 0 .82 4.263-21.57-6.903-.705-4.225Z" style="fill:#fff;fill-opacity:1;fill-rule:nonzero;stroke:none" transform="translate(107.407 35.023)"/><path d="m0 0 .758 4.242-29.687-9.5-.132-.681h10.5z" style="fill:#fff;fill-opacity:1;fill-rule:nonzero;stroke:none" transform="translate(138.14 28.857)"/><path d="m0 0-.705-4.226 23.764 7.605.82 4.263z" style="fill:#fff;fill-opacity:1;fill-rule:nonzero;stroke:none" transform="translate(100.741 116.89)"/><path d="m0 0 23.533 7.53.82 4.263L.704 4.226Z" style="fill:#fff;fill-opacity:1;fill-rule:nonzero;stroke:none" transform="translate(98.628 104.214)"/><path d="m0 0 27.355 8.754.704 4.225L.599 4.191Z" style="fill:#fff;fill-opacity:1;fill-rule:nonzero;stroke:none" transform="translate(68.457 102.559)"/><path d="m0 0-.82-4.262L27.563 4.82l.757 4.243Z" style="fill:#fff;fill-opacity:1;fill-rule:nonzero;stroke:none" transform="translate(127.243 117.37)"/><path d="m0 0 .705 4.226-27.25-8.72-.599-4.192z" style="fill:#fff;fill-opacity:1;fill-rule:nonzero;stroke:none" transform="translate(94.403 102.861)"/><path d="m0 0 .705 4.226-26.829-8.585-.599-4.192z" style="fill:#fff;fill-opacity:1;fill-rule:nonzero;stroke:none" transform="translate(91.586 85.96)"/><path d="m0 0 .704 4.225-26.617-8.518-.599-4.191z" style="fill:#fff;fill-opacity:1;fill-rule:nonzero;stroke:none" transform="translate(90.178 77.51)"/><path d="m0 0 .704 4.225-27.039-8.653-.599-4.191z" style="fill:#fff;fill-opacity:1;fill-rule:nonzero;stroke:none" transform="translate(92.995 94.411)"/></g></svg>

<?xml version="1.0" encoding="UTF-8" standalone="no"?>
<svg
   xmlns:dc="http://purl.org/dc/elements/1.1/"
   xmlns:cc="http://creativecommons.org/ns#"
   xmlns:rdf="http://www.w3.org/1999/02/22-rdf-syntax-ns#"
   xmlns:svg="http://www.w3.org/2000/svg"
   xmlns="http://www.w3.org/2000/svg"
   viewBox="0 0 305.85315 320.00399"
   height="320.004"
   width="305.85315"
   xml:space="preserve"
   id="svg2"
   version="1.1"><metadata
     id="metadata8"><rdf:RDF><cc:Work
         rdf:about=""><dc:format>image/svg+xml</dc:format><dc:type
           rdf:resource="http://purl.org/dc/dcmitype/StillImage" /></cc:Work></rdf:RDF></metadata><defs
     id="defs6"><clipPath
       id="clipPath18"
       clipPathUnits="userSpaceOnUse"><path
         id="path16"
         d="M 0,256 H 256 V 0 H 0 Z" /></clipPath></defs><g
     transform="matrix(1.3333333,0,0,-1.3333333,-17.738441,329.22799)"
     id="g10"><g
       id="g12"><g
         clip-path="url(#clipPath18)"
         id="g14"><g
           transform="translate(23.2197,10.918)"
           id="g20"><path
             id="path22"
             style="fill:#ffffff;fill-opacity:1;fill-rule:nonzero;stroke:none"
             d="m 0,0 c -0.972,0 -1.895,0.356 -2.613,0.978 -0.131,0.113 -0.256,0.234 -0.372,0.365 -0.004,0.004 -0.009,0.008 -0.013,0.011 -0.118,0.135 -0.23,0.276 -0.33,0.427 L -6.141,6 h 4.245 4.041 213.328 0.386 L 213.047,1.781 C 212.305,0.668 211.056,0 209.719,0 Z M 15.841,87.851 6.347,10 H 2.716 -1.324 -5.628 L 3.859,84 Z M -3.921,222.003 8.181,222.215 15.411,92.066 14.594,91.795 3.417,88.069 Z m 113.778,1.996 105.433,-1.989 -8.82,-61.83 -1.938,-0.692 L 20.553,93.781 19.345,93.378 12.183,222.286 Z M 10.377,10 19.83,87.516 20.054,89.355 205.878,155.721 215.465,10 Z M 5.907,226.176 -4.141,226 l 1.089,3.265 c 0.544,1.633 2.073,2.735 3.794,2.735 h 5.041 204.156 1.038 c 0.24,0 0.475,-0.026 0.706,-0.068 0.057,-0.011 0.113,-0.028 0.17,-0.041 0.177,-0.04 0.351,-0.09 0.52,-0.153 0.049,-0.018 0.096,-0.039 0.144,-0.059 0.181,-0.076 0.355,-0.165 0.522,-0.266 0.027,-0.017 0.055,-0.032 0.081,-0.049 0.756,-0.482 1.354,-1.207 1.651,-2.099 l 1.088,-3.265 -106,2 z m 210.468,-226.613 2.812,4.218 0.287,6.219 -9.591,145.78 9.048,63.429 c 0.258,1.813 0.351,3.645 0.275,5.474 l -0.125,3.039 c -0.039,0.955 -0.213,1.901 -0.516,2.808 0,3.021 -2.448,5.47 -5.469,5.47 H 109.939 l -0.077,0.003 L 109.783,236 H 0.742 c -3.443,0 -6.5,-2.204 -7.589,-5.47 l -1.089,-3.265 0.012,-5.332 L -0.398,84.581 -9.661,10 -9.892,7.001 c -0.16,-2.065 0.489,-4.112 1.808,-5.71 l 1.428,-1.728 C -5.169,-2.668 -2.681,-4 0,-4 h 209.719 c 2.675,0 5.173,1.337 6.656,3.563" /></g><g
           transform="translate(112.3252,60.5967)"
           id="g24"><path
             id="path26"
             style="fill:#ffffff;fill-opacity:1;fill-rule:nonzero;stroke:none"
             d="m 0,0 0.819,4.262 -22.262,-7.124 -0.704,-4.225 z" /></g><g
           transform="translate(113.9644,69.1211)"
           id="g28"><path
             id="path30"
             style="fill:#ffffff;fill-opacity:1;fill-rule:nonzero;stroke:none"
             d="m 0,0 0.82,4.263 -22.494,-7.199 -0.704,-4.225 z" /></g><g
           transform="translate(110.6855,52.0723)"
           id="g32"><path
             id="path34"
             style="fill:#ffffff;fill-opacity:1;fill-rule:nonzero;stroke:none"
             d="m 0,0 0.82,4.262 -22.032,-7.05 -0.705,-4.226 z" /></g><g
           transform="translate(123.9644,100.3213)"
           id="g36"><path
             id="path38"
             style="fill:#ffffff;fill-opacity:1;fill-rule:nonzero;stroke:none"
             d="m 0,0 -0.82,-4.263 28.632,9.162 0.757,4.243 z" /></g><g
           transform="translate(119.0464,74.7471)"
           id="g40"><path
             id="path42"
             style="fill:#ffffff;fill-opacity:1;fill-rule:nonzero;stroke:none"
             d="M 0,0 -0.82,-4.262 28.184,5.02 28.942,9.262 Z" /></g><g
           transform="translate(117.4067,66.2227)"
           id="g44"><path
             id="path46"
             style="fill:#ffffff;fill-opacity:1;fill-rule:nonzero;stroke:none"
             d="m 0,0 -0.819,-4.262 29.128,9.321 0.757,4.243 z" /></g><g
           transform="translate(122.3252,91.7969)"
           id="g48"><path
             id="path50"
             style="fill:#ffffff;fill-opacity:1;fill-rule:nonzero;stroke:none"
             d="m 0,0 -0.82,-4.263 28.756,9.202 0.757,4.243 z" /></g><g
           transform="translate(120.6855,83.2725)"
           id="g52"><path
             id="path54"
             style="fill:#ffffff;fill-opacity:1;fill-rule:nonzero;stroke:none"
             d="m 0,0 -0.82,-4.263 28.881,9.242 0.756,4.242 z" /></g><g
           transform="translate(117.2432,86.1699)"
           id="g56"><path
             id="path58"
             style="fill:#ffffff;fill-opacity:1;fill-rule:nonzero;stroke:none"
             d="M 0,0 0.819,4.263 -22.136,-3.083 -22.84,-7.309 Z" /></g><g
           transform="translate(115.6035,77.6455)"
           id="g60"><path
             id="path62"
             style="fill:#ffffff;fill-opacity:1;fill-rule:nonzero;stroke:none"
             d="M 0,0 0.82,4.263 -21.905,-3.01 -22.609,-7.234 Z" /></g><g
           transform="translate(112.4888,40.6494)"
           id="g64"><path
             id="path66"
             style="fill:#ffffff;fill-opacity:1;fill-rule:nonzero;stroke:none"
             d="m 0,0 -0.819,-4.263 29.5,9.441 0.758,4.242 z" /></g><g
           transform="translate(139.6553,37.3418)"
           id="g68"><path
             id="path70"
             style="fill:#ffffff;fill-opacity:1;fill-rule:nonzero;stroke:none"
             d="m 0,0 0.757,4.243 -29.563,-9.461 -0.819,-4.261 z" /></g><g
           transform="translate(97.9243,99.9883)"
           id="g72"><path
             id="path74"
             style="fill:#ffffff;fill-opacity:1;fill-rule:nonzero;stroke:none"
             d="m 0,0 -0.705,-4.226 23.302,7.457 0.82,4.262 z" /></g><g
           transform="translate(132.0791,22.918)"
           id="g76"><path
             id="path78"
             style="fill:#ffffff;fill-opacity:1;fill-rule:nonzero;stroke:none"
             d="M 0,0 H 5 L 5.303,1.697 Z" /></g><g
           transform="translate(105.7676,26.498)"
           id="g80"><path
             id="path82"
             style="fill:#ffffff;fill-opacity:1;fill-rule:nonzero;stroke:none"
             d="m 0,0 0.82,4.263 -21.34,-6.829 -0.168,-1.014 h 9.5 z" /></g><g
           transform="translate(118.8823,94.6953)"
           id="g84"><path
             id="path86"
             style="fill:#ffffff;fill-opacity:1;fill-rule:nonzero;stroke:none"
             d="m 0,0 0.82,4.262 -23.187,-7.42 -0.704,-4.225 z" /></g><g
           transform="translate(115.7676,57.6982)"
           id="g88"><path
             id="path90"
             style="fill:#ffffff;fill-opacity:1;fill-rule:nonzero;stroke:none"
             d="M 0,0 -0.82,-4.263 28.433,5.099 29.19,9.341 Z" /></g><g
           transform="translate(114.1284,49.1738)"
           id="g92"><path
             id="path94"
             style="fill:#ffffff;fill-opacity:1;fill-rule:nonzero;stroke:none"
             d="m 0,0 -0.82,-4.263 29.377,9.401 0.757,4.243 z" /></g><g
           transform="translate(87.3608,60.6084)"
           id="g96"><path
             id="path98"
             style="fill:#ffffff;fill-opacity:1;fill-rule:nonzero;stroke:none"
             d="M 0,0 0.704,4.225 -25.491,-4.157 -26.09,-8.35 Z" /></g><g
           transform="translate(83.1353,35.2559)"
           id="g100"><path
             id="path102"
             style="fill:#ffffff;fill-opacity:1;fill-rule:nonzero;stroke:none"
             d="m 0,0 0.705,4.226 -25.563,-8.181 -0.6,-4.191 z" /></g><g
           transform="translate(84.5439,43.707)"
           id="g104"><path
             id="path106"
             style="fill:#ffffff;fill-opacity:1;fill-rule:nonzero;stroke:none"
             d="M 0,0 0.704,4.225 -25.07,-4.022 -25.668,-8.214 Z" /></g><g
           transform="translate(109.8657,47.8096)"
           id="g108"><path
             id="path110"
             style="fill:#ffffff;fill-opacity:1;fill-rule:nonzero;stroke:none"
             d="m 0,0 -21.801,-6.977 -0.704,-4.224 21.686,6.939 z" /></g><g
           transform="translate(85.9521,52.1572)"
           id="g112"><path
             id="path114"
             style="fill:#ffffff;fill-opacity:1;fill-rule:nonzero;stroke:none"
             d="M 0,0 0.705,4.226 -25.28,-4.09 -25.879,-8.281 Z" /></g><g
           transform="translate(81.7271,26.8057)"
           id="g116"><path
             id="path118"
             style="fill:#ffffff;fill-opacity:1;fill-rule:nonzero;stroke:none"
             d="m 0,0 0.704,4.225 -25.352,-8.113 h 12.5 z" /></g><g
           transform="translate(88.769,69.0586)"
           id="g120"><path
             id="path122"
             style="fill:#ffffff;fill-opacity:1;fill-rule:nonzero;stroke:none"
             d="m 0,0 0.705,4.226 -26.407,-8.451 -0.599,-4.191 z" /></g><g
           transform="translate(128.0625,121.6328)"
           id="g124"><path
             id="path126"
             style="fill:#ffffff;fill-opacity:1;fill-rule:nonzero;stroke:none"
             d="M 0,0 28.259,9.042 29.017,13.285 0.82,4.262 Z" /></g><g
           transform="translate(125.6035,108.8457)"
           id="g128"><path
             id="path130"
             style="fill:#ffffff;fill-opacity:1;fill-rule:nonzero;stroke:none"
             d="M 0,0 -0.819,-4.263 27.687,4.86 28.445,9.103 Z" /></g><g
           transform="translate(107.4067,35.0225)"
           id="g132"><path
             id="path134"
             style="fill:#ffffff;fill-opacity:1;fill-rule:nonzero;stroke:none"
             d="M 0,0 0.82,4.263 -20.75,-2.64 -21.455,-6.865 Z" /></g><g
           transform="translate(138.1396,28.8574)"
           id="g136"><path
             id="path138"
             style="fill:#ffffff;fill-opacity:1;fill-rule:nonzero;stroke:none"
             d="m 0,0 0.758,4.242 -29.687,-9.5 -0.132,-0.681 h 10.5 z" /></g><g
           transform="translate(100.7412,116.8896)"
           id="g140"><path
             id="path142"
             style="fill:#ffffff;fill-opacity:1;fill-rule:nonzero;stroke:none"
             d="m 0,0 -0.705,-4.226 23.764,7.605 0.82,4.263 z" /></g><g
           transform="translate(98.6284,104.2139)"
           id="g144"><path
             id="path146"
             style="fill:#ffffff;fill-opacity:1;fill-rule:nonzero;stroke:none"
             d="m 0,0 23.533,7.53 0.82,4.263 L 0.704,4.226 Z" /></g><g
           transform="translate(68.4565,102.5586)"
           id="g148"><path
             id="path150"
             style="fill:#ffffff;fill-opacity:1;fill-rule:nonzero;stroke:none"
             d="M 0,0 27.355,8.754 28.059,12.979 0.599,4.191 Z" /></g><g
           transform="translate(127.2432,117.3701)"
           id="g152"><path
             id="path154"
             style="fill:#ffffff;fill-opacity:1;fill-rule:nonzero;stroke:none"
             d="M 0,0 -0.82,-4.262 27.563,4.82 28.32,9.063 Z" /></g><g
           transform="translate(94.4028,102.8613)"
           id="g156"><path
             id="path158"
             style="fill:#ffffff;fill-opacity:1;fill-rule:nonzero;stroke:none"
             d="m 0,0 0.705,4.226 -27.25,-8.72 -0.599,-4.192 z" /></g><g
           transform="translate(91.5859,85.96)"
           id="g160"><path
             id="path162"
             style="fill:#ffffff;fill-opacity:1;fill-rule:nonzero;stroke:none"
             d="m 0,0 0.705,4.226 -26.829,-8.585 -0.599,-4.192 z" /></g><g
           transform="translate(90.1777,77.5098)"
           id="g164"><path
             id="path166"
             style="fill:#ffffff;fill-opacity:1;fill-rule:nonzero;stroke:none"
             d="m 0,0 0.704,4.225 -26.617,-8.518 -0.599,-4.191 z" /></g><g
           transform="translate(92.9946,94.4111)"
           id="g168"><path
             id="path170"
             style="fill:#ffffff;fill-opacity:1;fill-rule:nonzero;stroke:none"
             d="m 0,0 0.704,4.225 -27.039,-8.653 -0.599,-4.191 z" /></g></g></g></g></svg>
